svgs/duotone/award.svg

<svg xmlns="http://www.w3.org/2000/svg" viewBox="0 0 384 512"><!--! Font Awesome Pro 6.3.0 by @fontawesome - https://fontawesome.com License - https://fontawesome.com/license (Commercial License) Copyright 2023 Fonticons, Inc. --><defs><style>.fa-secondary{opacity:.4}</style></defs><path class="fa-primary" d="M383.1 192c0-16.5-17.27-30.52-21.34-45.73c-4.207-15.75 3.612-36.5-4.365-50.29c-8.086-13.98-30.03-17.52-41.38-28.87c-11.35-11.35-14.89-33.3-28.87-41.39c-13.79-7.979-34.54-.1637-50.29-4.375C222.5 17.27 208.5 0 192 0C175.5 0 161.5 17.27 146.3 21.34C130.5 25.54 109.8 17.73 95.98 25.7C82 33.79 78.46 55.74 67.11 67.08C55.77 78.43 33.81 81.97 25.72 95.95C17.74 109.7 25.56 130.5 21.35 146.2C17.27 161.5 .0008 175.5 .0008 192c0 16.5 17.27 30.52 21.34 45.73c4.207 15.75-3.615 36.5 4.361 50.29C33.8 302 55.74 305.5 67.08 316.9c11.35 11.35 14.89 33.3 28.88 41.4c13.79 7.979 34.53 .1582 50.28 4.369C161.5 366.7 175.5 384 192 384c16.5 0 30.52-17.27 45.74-21.34c15.75-4.209 36.49 3.617 50.28-4.359c13.98-8.088 17.53-30.04 28.88-41.39c11.35-11.35 33.3-14.88 41.39-28.87c7.98-13.79 .1658-34.54 4.373-50.29C366.7 222.5 383.1 208.5 383.1 192zM192 272C147.8 272 112 236.2 112 192c0-44.27 35.81-80 80-80s80 35.73 80 80C272 236.2 236.2 272 192 272z"/><path class="fa-secondary" d="M95.96 358.3C81.98 350.2 78.43 328.2 67.08 316.9c-3.762-3.764-8.764-6.619-13.97-9.332l-51.4 125.7c-3.25 8.188-1.781 17.48 3.875 24.25c5.656 6.75 14.53 9.898 23.12 8.148l45.19-9.035l21.43 42.27C99.46 507 107.6 512 116.7 512c.3438 0 .6641-.0117 1.008-.0273c9.5-.375 17.65-6.082 21.24-14.88l47.06-114.5c-13.95-3.367-26.44-16.4-39.76-19.96C130.5 358.4 109.7 366.3 95.96 358.3zM382.3 433.2l-51.39-125.6c-5.215 2.717-10.23 5.574-14 9.344c-11.34 11.35-14.89 33.3-28.88 41.39c-13.79 7.977-34.53 .1504-50.28 4.359c-13.31 3.557-25.8 16.58-39.74 19.95l47.06 114.5c3.594 8.797 11.74 14.5 21.24 14.88C266.6 511.1 266.1 512 267.3 512c9.094 0 17.23-4.973 21.35-13.14l21.43-42.28l45.19 9.035c8.594 1.75 17.47-1.398 23.12-8.148C384.1 450.7 385.5 441.4 382.3 433.2z"/></svg>

<svg xmlns="http://www.w3.org/2000/svg" viewBox="0 0 384 512"><!-- Font Awesome Pro 6.0.0-alpha2 by @fontawesome - https://fontawesome.com License - https://fontawesome.com/license (Commercial License) --><defs><style>.fa-secondary{opacity:.4}</style></defs><path d="M95.939 358.287C81.959 350.193 78.416 328.24 67.064 316.891C63.303 313.127 58.301 310.271 53.098 307.559L1.701 433.219C-1.549 441.406 -0.08 450.703 5.576 457.469C11.232 464.219 20.107 467.359 28.701 465.609L73.889 456.578L95.326 498.844C99.451 507.031 107.576 512 116.67 512C117.014 512 117.326 511.984 117.67 511.969C127.17 511.594 135.326 505.891 138.92 497.094L185.982 382.615C172.035 379.248 159.543 366.219 146.221 362.656C130.475 358.445 109.729 366.266 95.939 358.287ZM382.264 433.219L330.873 307.574C325.658 310.291 320.645 313.148 316.873 316.918C305.529 328.264 301.982 350.217 287.998 358.305C274.209 366.281 253.467 358.455 237.721 362.664C224.41 366.221 211.92 379.248 197.982 382.615L245.045 497.094C248.639 505.891 256.795 511.594 266.295 511.969C266.639 511.984 266.951 512 267.295 512C276.389 512 284.514 507.031 288.639 498.859L310.076 456.578L355.264 465.609C363.857 467.359 372.732 464.219 378.389 457.469C384.045 450.703 385.514 441.406 382.264 433.219Z" class="fa-secondary"/><path d="M384 192C384 175.498 366.734 161.484 362.664 146.266C358.457 130.52 366.281 109.773 358.305 95.986C350.219 82.006 328.266 78.459 316.922 67.109C305.57 55.76 302.027 33.807 288.047 25.713C274.258 17.734 253.508 25.555 237.766 21.344C222.535 17.271 208.516 0 192 0C175.5 0 161.484 17.27 146.266 21.336C130.523 25.545 109.773 17.719 95.988 25.695C82.008 33.783 78.461 55.736 67.113 67.082C55.766 78.432 33.809 81.973 25.719 95.957C17.734 109.744 25.555 130.49 21.348 146.236C17.273 161.465 0 175.486 0 192C0 208.502 17.273 222.516 21.34 237.734C25.547 253.48 17.719 274.227 25.695 288.014C33.789 301.994 55.738 305.541 67.082 316.891C78.434 328.24 81.977 350.193 95.957 358.287C109.746 366.266 130.492 358.445 146.238 362.656C161.469 366.729 175.488 384 192 384C208.5 384 222.52 366.73 237.738 362.664C253.484 358.455 274.227 366.281 288.016 358.305C301.999 350.217 305.547 328.264 316.891 316.918C328.242 305.568 350.195 302.027 358.289 288.043C366.27 274.256 358.449 253.51 362.656 237.764C366.73 222.535 384 208.514 384 192ZM192 272C147.812 272 112 236.166 112 192C112 147.729 147.812 112 192 112S272 147.729 272 192C272 236.166 236.188 272 192 272Z" class="fa-primary"/></svg>
